X: 33
T:Major L. Stewart's Reel - of the Island of Java
M:4/4
L:1/8
C:Wm. Marshall
R:Reel
K:G
"G"G2 g2 a/g/f g2|"G"dgBg dgBg|"G"G2 g2 a/g/f g2|"D"fa AB cBcA|!
"G"G2 g2 a/g/f g2|"G"dgBg dgBg|"G"G2 g2 a/g/f g2|"D"fg/a/ AB cdef|!
"Em"gbeg dg B2|"Em"gbeg "D"fgaf|"Em"gbeg eg B2|"D"ABcd edef|!
"Em"gbeg dg B2|"Em"gbeg "D"fgaf|"G"gbfa "Em"egdg|"C"caBg "D"ABcA||
